X:1
T:Bach, Violin Sonata #2, Andante, BWV1003
T:Bach, Violin Sonata #2, Andante, BWV1003
T:J. S. Bach
%%score ( 1 2 )
L:1/8
Q:1/4=60
M:3/4
K:C
V:1 treble nm="Violin" snm="Vln."
V:2 treble 
V:1
"^Slow" E2 z E F/E/D/C/ | G/D/F- FA G/F/E/D/ | E/G/A/B/ G/G/A/E/ ^F/A/B/c/ | %3
 B/A/G z e/d/ e/d/c/B/ | A2 z d/e/ d/c/B/A/ | B/d/e/f/ d/d/e/B/ c/e/a/g/ | %6
 c/c/d/A/ B/c/d/e/ f/a/g/f/ | [Gce] z z/ d/c/B/ A/G/^F/4G/4E/ | %8
 ^F/D/E/F/ G/4B/4A/4c/4B/4d/4c/4e/4 [B,Gd]2 | C/(e/4d/4c/4d/4e/) B-B/4c/8B/8A/4B/4 cTA |1 %10
 G2 z/ G/F/E/ D/A/G/F/ :|2 [G,G]6 | d2 z d e/d/c/B/ |: e/B/d- df e/d/c/B/ | c/d/e- ee d/c/B/A/ | %15
 a/^f/^g z g/b/ b/g/g/e/ | a2- a/b/a/g/ ^f/e/^d/e/ | a/b/c'- c'c'/b/ a/g/a/^f/ | %18
 g/e/^d/e/ [eb]a a/g/a/^f/ | ^fe z e/f/ g/a/_b- | ba z g g/f/g/e/ | ef z d/e/ f/g/a | %22
 Bc z c e/d/e/c/ | B2 z/ B/c/B/ A/G/F/E/ | F/(_e/d/c/ B/c/)_a/g/ [=A,Dc^f]/(c/4B/4c/f/) | %25
 g/>a/g/4f/8e/8f/4g/4 d3/2(3B/4A/4B/4 TB3/2A/4B/4 |1 c2 z2 z2 | B/c/d z d e/d/c/B/ :|2 [CEc]6 |] %29
V:2
 CC CC CC | B,B, B,B, B,B, | CC [A,c]A, DD | [G,D]G, GG GG | GG FF FF | FF [Eg]E AA | %6
 [Df]D GG [G,DB][G,DB] | CC C[CE] [CE]C | C z z4 | z2 D4 |1 G,G, A,A, B,B, :|2 x6 | GG GG GG |: %13
 ^GG G[Gd] [GB]G | AA FF FF | [EB][EB] dd dd | cc cc cA | [^F^d][Fd] dd BB | [EB]^F GA BB | %19
 ee dd dd | ^cc AA AA | dd DD [DA][DA] | EE ^FF FF | GG GG G,G, | _A,/ z/ z z4 | %25
 [G,Ec] z [G,D]2 z2 |1 [CE][CE] [B,E][B,E] [A,^F][A,F] | [G,G][G,G] GGGG :|2 x6 |] %29

